src/assets/filled/ArchiveAdd.svg

<svg width="24" height="24" viewBox="0 0 24 24"  xmlns="http://www.w3.org/2000/svg">
<path d="M16.8201 2H7.18007C5.05007 2 3.32007 3.74 3.32007 5.86V19.95C3.32007 21.75 4.61007 22.51 6.19007 21.64L11.0701 18.93C11.5901 18.64 12.4301 18.64 12.9401 18.93L17.8201 21.64C19.4001 22.52 20.6901 21.76 20.6901 19.95V5.86C20.6801 3.74 18.9501 2 16.8201 2ZM14.5001 11.4H12.7501V13.21C12.7501 13.62 12.4101 13.96 12.0001 13.96C11.5901 13.96 11.2501 13.62 11.2501 13.21V11.4H9.50007C9.09007 11.4 8.75007 11.06 8.75007 10.65C8.75007 10.24 9.09007 9.9 9.50007 9.9H11.2501V8.21C11.2501 7.8 11.5901 7.46 12.0001 7.46C12.4101 7.46 12.7501 7.8 12.7501 8.21V9.9H14.5001C14.9101 9.9 15.2501 10.24 15.2501 10.65C15.2501 11.06 14.9101 11.4 14.5001 11.4Z" />
</svg>

<?xml version="1.0" encoding="UTF-8"?>
<svg width="24" height="24" viewBox="0 0 24 24" xmlns="http://www.w3.org/2000/svg">
 <path d="m16.82 2h-9.64c-2.13 0-3.86 1.74-3.86 3.86v14.09c0 1.8 1.29 2.56 2.87 1.69l4.88-2.71c0.52-0.29 1.36-0.29 1.87 0l4.88 2.71c1.58 0.88 2.87 0.12 2.87-1.69v-14.09c-0.01-2.12-1.74-3.86-3.87-3.86zm-2.32 9.4h-1.75v1.81c0 0.41-0.34 0.75-0.75 0.75s-0.75-0.34-0.75-0.75v-1.81h-1.75c-0.41 0-0.75-0.34-0.75-0.75s0.34-0.75 0.75-0.75h1.75v-1.69c0-0.41 0.34-0.75 0.75-0.75s0.75 0.34 0.75 0.75v1.69h1.75c0.41 0 0.75 0.34 0.75 0.75s-0.34 0.75-0.75 0.75z"/>
</svg>
